src/.vuepress/public/assets/websites/bard.google.svg

<svg xmlns="http://www.w3.org/2000/svg" width="1080" height="1080" fill="none" viewBox="0 0 1080 1080"><path fill="url(#a)" d="m515.09 725.824-43.084 98.679c-16.562 37.931-69.052 37.931-85.613 0l-43.085-98.679c-38.342-87.818-107.355-157.72-193.44-195.932l-118.59-52.641c-37.704-16.736-37.704-71.586 0-88.322l114.886-50.997c88.299-39.195 158.55-111.688 196.237-202.501l43.643-105.162c16.195-39.025 70.115-39.025 86.311 0l43.643 105.163c37.687 90.812 107.937 163.305 196.236 202.5l114.887 50.997c37.704 16.736 37.704 71.586 0 88.322L708.53 529.892c-86.084 38.212-155.097 108.114-193.44 195.932"/><path fill="url(#b)" d="m915.485 1036.98-12.118 27.77c-8.868 20.33-37.018 20.33-45.886 0l-12.117-27.77c-21.599-49.515-60.502-88.938-109.046-110.505l-37.331-16.586c-20.185-8.968-20.185-38.311 0-47.279l35.244-15.659c49.792-22.122 89.392-63.004 110.62-114.201l12.443-30.009c8.672-20.915 37.588-20.915 46.26 0l12.443 30.009c21.228 51.197 60.829 92.079 110.623 114.201l35.24 15.659c20.19 8.968 20.19 38.311 0 47.279l-37.33 16.586c-48.543 21.567-87.447 60.99-109.045 110.505"/><defs><radialGradient id="a" cx="0" cy="0" r="1" gradientTransform="rotate(78.858 46.989 644.69)scale(665.5 665.824)" gradientUnits="userSpaceOnUse"><stop stop-color="#1BA1E3"/><stop offset="0" stop-color="#1BA1E3"/><stop offset=".3" stop-color="#5489D6"/><stop offset=".546" stop-color="#9B72CB"/><stop offset=".825" stop-color="#D96570"/><stop offset="1" stop-color="#F49C46"/></radialGradient><radialGradient id="b" cx="0" cy="0" r="1" gradientTransform="rotate(78.858 46.989 644.69)scale(665.5 665.824)" gradientUnits="userSpaceOnUse"><stop stop-color="#1BA1E3"/><stop offset="0" stop-color="#1BA1E3"/><stop offset=".3" stop-color="#5489D6"/><stop offset=".546" stop-color="#9B72CB"/><stop offset=".825" stop-color="#D96570"/><stop offset="1" stop-color="#F49C46"/></radialGradient></defs></svg>

<svg width="1080" height="1080" viewBox="0 0 1080 1080" fill="none" xmlns="http://www.w3.org/2000/svg">
<path d="M515.09 725.824L472.006 824.503C455.444 862.434 402.954 862.434 386.393 824.503L343.308 725.824C304.966 638.006 235.953 568.104 149.868 529.892L31.2779 477.251C-6.42601 460.515 -6.42594 405.665 31.2779 388.929L146.164 337.932C234.463 298.737 304.714 226.244 342.401 135.431L386.044 30.2693C402.239 -8.75637 456.159 -8.75646 472.355 30.2692L515.998 135.432C553.685 226.244 623.935 298.737 712.234 337.932L827.121 388.929C864.825 405.665 864.825 460.515 827.121 477.251L708.53 529.892C622.446 568.104 553.433 638.006 515.09 725.824Z" fill="url(#paint0_radial_2525_777)"/>
<path d="M915.485 1036.98L903.367 1064.75C894.499 1085.08 866.349 1085.08 857.481 1064.75L845.364 1036.98C823.765 987.465 784.862 948.042 736.318 926.475L698.987 909.889C678.802 900.921 678.802 871.578 698.987 862.61L734.231 846.951C784.023 824.829 823.623 783.947 844.851 732.75L857.294 702.741C865.966 681.826 894.882 681.826 903.554 702.741L915.997 732.75C937.225 783.947 976.826 824.829 1026.62 846.951L1061.86 862.61C1082.05 871.578 1082.05 900.921 1061.86 909.889L1024.53 926.475C975.987 948.042 937.083 987.465 915.485 1036.98Z" fill="url(#paint1_radial_2525_777)"/>
<defs>
<radialGradient id="paint0_radial_2525_777" cx="0" cy="0" r="1" gradientUnits="userSpaceOnUse" gradientTransform="translate(670.447 474.006) rotate(78.858) scale(665.5 665.824)">
<stop stop-color="#1BA1E3"/>
<stop offset="0.0001" stop-color="#1BA1E3"/>
<stop offset="0.300221" stop-color="#5489D6"/>
<stop offset="0.545524" stop-color="#9B72CB"/>
<stop offset="0.825372" stop-color="#D96570"/>
<stop offset="1" stop-color="#F49C46"/>
</radialGradient>
<radialGradient id="paint1_radial_2525_777" cx="0" cy="0" r="1" gradientUnits="userSpaceOnUse" gradientTransform="translate(670.447 474.006) rotate(78.858) scale(665.5 665.824)">
<stop stop-color="#1BA1E3"/>
<stop offset="0.0001" stop-color="#1BA1E3"/>
<stop offset="0.300221" stop-color="#5489D6"/>
<stop offset="0.545524" stop-color="#9B72CB"/>
<stop offset="0.825372" stop-color="#D96570"/>
<stop offset="1" stop-color="#F49C46"/>
</radialGradient>
</defs>
</svg>
